icon-svg/rooms-hallway.svg

<svg xmlns="http://www.w3.org/2000/svg" fill="#44739e" viewBox="0 0 24 24"><path d="M27.976 21.823 25.099 9.047c-.452-2.01-2.38-3.286-4.385-2.985l-.781-1.172A2 2 0 0 0 18.269 4H17c-.552 0-1 .447-1 1v2h-2V1c0-.553-.447-1-1-1-.552 0-1 .447-1 1v11H8v-2c0-.553-.447-1-1-1-.552 0-1 .447-1 1v3c0 .552.448 1 1 1h5v15H8c-1.104 0-2 .895-2 2 0 .552.448 1 1 1h12c.553 0 1-.448 1-1 0-1.105-.895-2-2-2h-4V9h2v16c0 .552.448 1 1 1h1.339c2.07 0 3.621-1.894 3.216-3.922L20.339 16l1.106-4.974 2.629 11.676c.121.539.656.877 1.195.756l1.951-.44c.538-.121.877-.656.756-1.195"/></svg>

<?xml version="1.0" encoding="UTF-8"?>
<svg width="32px" height="32px" viewBox="0 0 32 32" fill="#44739e" version="1.1" xmlns="http://www.w3.org/2000/svg" xmlns:xlink="http://www.w3.org/1999/xlink">
            <path d="M27.976,21.823 L25.099,9.047 C24.647,7.037 22.719,5.761 20.714,6.062 L19.933,4.89 C19.562,4.334 18.938,4 18.269,4 L17,4 C16.448,4 16,4.447 16,5 L16,7 L14,7 L14,1 C14,0.447 13.553,0 13,0 C12.448,0 12,0.447 12,1 L12,12 L8,12 L8,10 C8,9.447 7.553,9 7,9 C6.448,9 6,9.447 6,10 L6,13 C6,13.552 6.448,14 7,14 L12,14 L12,29 L8,29 C6.896,29 6,29.895 6,31 C6,31.552 6.448,32 7,32 L19,32 C19.553,32 20,31.552 20,31 C20,29.895 19.105,29 18,29 L14,29 L14,9 L16,9 L16,25 C16,25.552 16.448,26 17,26 L18.339,26 C20.409,26 21.96,24.106 21.555,22.078 L20.339,16 L21.445,11.026 L24.074,22.702 C24.195,23.241 24.73,23.579 25.269,23.458 L27.22,23.018 C27.758,22.897 28.097,22.362 27.976,21.823"></path>
</svg>
